X:514
T: WILLKOMMEN UNS
N: F0986
O: Europa, Mitteleuropa, Deutschland
R: Natur -, Jahreszeiten - Lied, Fruehling
M: 4/4
L: 1/8
K: D
A,2 | A,3F,F,2D2 | C3B,A,2
B,2 | G,2A,2F,2A,G, | E,4z2
E,F, | G,2A,2B,2C2 | D3EF2
E2 | D2C2G,2A,B, | A,4z2
D2 | F3ED2C2 | D4z2

@@@ Tune index: 5945
